ui/StatusQ/src/assets/img/icons/exchange.svg

<svg fill="none" height="24" viewBox="0 0 24 24" width="24" xmlns="http://www.w3.org/2000/svg"><g fill="#000"><path d="m6.46967 12.4697c.29289-.2929.76777-.2929 1.06066 0s.29289.7677 0 1.0606l-1.86612 1.8661c-.31498.315-.09189.8536.35356.8536h12.98223c.4142 0 .75.3358.75.75s-.3358.75-.75.75h-12.98223c-.44546 0-.66854.5386-.35356.8536l1.86612 1.8661c.29289.2929.29289.7677 0 1.0606s-.76777.2929-1.06066 0l-4-4c-.29289-.2929-.29289-.7677 0-1.0606z"/><path d="m17.5303 2.46967c-.2929-.29289-.7677-.29289-1.0606 0s-.2929.76777 0 1.06066l1.8661 1.86612c.315.31498.0919.85355-.3536.85355h-12.9822c-.41421 0-.75.33579-.75.75s.33579.75.75.75h12.9822c.4455 0 .6686.53857.3536.85355l-1.8661 1.86615c-.2929.2929-.2929.7677 0 1.0606s.7677.2929 1.0606 0l4-3.99997c.2929-.29289.2929-.76777 0-1.06066z"/></g></svg>

<svg width="24" height="24" viewBox="0 0 24 24" fill="none" xmlns="http://www.w3.org/2000/svg">
<path d="M6.46967 12.4697C6.76256 12.1768 7.23744 12.1768 7.53033 12.4697C7.82322 12.7626 7.82322 13.2374 7.53033 13.5303L5.66421 15.3964C5.34923 15.7114 5.57232 16.25 6.01777 16.25H19C19.4142 16.25 19.75 16.5858 19.75 17C19.75 17.4142 19.4142 17.75 19 17.75H6.01777C5.57231 17.75 5.34923 18.2886 5.66421 18.6036L7.53033 20.4697C7.82322 20.7626 7.82322 21.2374 7.53033 21.5303C7.23744 21.8232 6.76256 21.8232 6.46967 21.5303L2.46967 17.5303C2.17678 17.2374 2.17678 16.7626 2.46967 16.4697L6.46967 12.4697Z" fill="black"/>
<path d="M17.5303 2.46967C17.2374 2.17678 16.7626 2.17678 16.4697 2.46967C16.1768 2.76256 16.1768 3.23744 16.4697 3.53033L18.3358 5.39645C18.6508 5.71143 18.4277 6.25 17.9822 6.25H5C4.58579 6.25 4.25 6.58579 4.25 7C4.25 7.41421 4.58579 7.75 5 7.75H17.9822C18.4277 7.75 18.6508 8.28857 18.3358 8.60355L16.4697 10.4697C16.1768 10.7626 16.1768 11.2374 16.4697 11.5303C16.7626 11.8232 17.2374 11.8232 17.5303 11.5303L21.5303 7.53033C21.8232 7.23744 21.8232 6.76256 21.5303 6.46967L17.5303 2.46967Z" fill="black"/>
</svg>
